icons/linear-ele-symbol-switch-button.svg

<svg xmlns="http://www.w3.org/2000/svg" width="32px" height="32px" viewBox="0 0 32 32" version="1.1">
    <title>linear-ele-symbol-switch-button</title>
    <g id="linear-ele-symbol-switch-button" stroke-width="1" fill-rule="evenodd">
        <path d="M21.0006957,4.99661683 C25.6982297,6.9559037 29,11.592367 29,17 C29,24.1797017 23.1797017,30 16,30 C8.82029825,30 3,24.1797017 3,17 C3,11.5919828 6.30223943,6.95524497 11.0003054,4.99619932 L11.0003548,7.19923782 C7.43848603,9.0198841 5,12.7251726 5,17 C5,23.0751322 9.92486775,28 16,28 C22.0751322,28 27,23.0751322 27,17 C27,12.7255711 24.5619686,9.02057487 21.0006412,7.19974699 L21.0006957,4.99661683 Z M16,2 C16.5522847,2 17,2.44771525 17,3 L17,13 C17,13.5522847 16.5522847,14 16,14 C15.4477153,14 15,13.5522847 15,13 L15,3 C15,2.44771525 15.4477153,2 16,2 Z" id="&#24418;&#29366;" fill-rule="nonzero" />
    </g>
</svg>

<svg xmlns="http://www.w3.org/2000/svg" viewBox="0 0 32 32"><path fill="currentColor" d="M21 4.997c4.698 1.959 8 6.595 8 12.003 0 7.18-5.82 13-13 13S3 24.18 3 17c0-5.408 3.302-10.045 8-12.004V7.2A11 11 0 0 0 5 17c0 6.075 4.925 11 11 11s11-4.925 11-11a11 11 0 0 0-6-9.8zM16 2a1 1 0 0 1 1 1v10a1 1 0 0 1-2 0V3a1 1 0 0 1 1-1"/></svg>
